assets/Suspension railway/Flat/suspension_railway_flat.svg

<svg width="32" height="32" viewBox="0 0 32 32" fill="none" xmlns="http://www.w3.org/2000/svg">
<path d="M2 4H30V5H2V4ZM28.2193 12C29.1997 12 30 12.8 30 13.78V25V25.04V28.2C30 29.19 29.2497 30 28.3194 30H7.39192C7.36691 30 7.34441 29.9975 7.3219 29.995C7.29939 29.9925 7.27688 29.99 7.25187 29.99C4.50089 29.86 2.2701 27.72 2.02001 25L2.01 24.8C2 24.7001 2 24.6001 2 24.5002V24.5V24L6 21V17L2.01 14V13.8C2.01 12.81 2.82029 12 3.81064 12H11V11.59C11 11.27 11.26 11 11.59 11H20.41C20.73 11 21 11.27 21 11.59V12H28.2193ZM30 7H2V8H30V7Z" fill="#D3D3D3"/>
<path d="M30 5H2V7H30V5Z" fill="#636363"/>
<path d="M30 16V13.7756C30 12.798 29.2 12 28.22 12H3.79999C2.80999 12 2 12.808 2 13.7955V13.995L3 15.99H30V16Z" fill="#0074BA"/>
<path d="M2 25H2.01002C2.07006 25.72 2.28021 26.39 2.60043 27H30V25H2Z" fill="#F9C23C"/>
<path d="M2 24H10.8989C11.5095 24 12 23.51 12 22.9V15.1C12 14.49 11.5095 14 10.8989 14H2V24ZM18.8982 14H15.1018C14.4908 14 14 14.49 14 15.1V20.9C14 21.51 14.4908 22 15.1018 22H18.8982C19.5092 22 20 21.51 20 20.9V15.1C20 14.5 19.5092 14 18.8982 14ZM23.1018 14H26.8982C27.5092 14 28 14.5 28 15.1V20.9C28 21.51 27.5092 22 26.8982 22H23.1018C22.4908 22 22 21.51 22 20.9V15.1C22 14.49 22.4908 14 23.1018 14Z" fill="#00A6ED"/>
<path d="M13 3H19C20.1 3 21 3.9 21 5C21 6.1 20.1 7 19 7H17.0026V9.27124C17.5978 9.61871 18 10.2647 18 11H17.0026V11.0034H15.0026V11H14C14 10.2626 14.4045 9.61501 15.0026 9.26825V7H13C11.9 7 11 6.1 11 5C11 3.9 11.9 3 13 3Z" fill="#9B9B9B"/>
</svg>

<svg xmlns="http://www.w3.org/2000/svg" width="32" height="32" fill="none"><path fill="#D3D3D3" d="M2 4h28v1H2V4Zm26.22 8c.98 0 1.78.8 1.78 1.78V28.2c0 .99-.75 1.8-1.68 1.8H7.391c-.025 0-.048-.003-.07-.005A5.515 5.515 0 0 1 2.02 25l-.01-.2C2 24.7 2 24.6 2 24.5V24l4-3v-4l-3.99-3v-.2c0-.99.81-1.8 1.8-1.8H11v-.41c0-.32.26-.59.59-.59h8.82c.32 0 .59.27.59.59V12h7.22ZM30 7H2v1h28V7Z"/><path fill="#636363" d="M30 5H2v2h28V5Z"/><path fill="#0074BA" d="M30 16v-2.224c0-.978-.8-1.776-1.78-1.776H3.8c-.99 0-1.8.808-1.8 1.796v.199l1 1.995h27V16Z"/><path fill="#F9C23C" d="M2 25h.01c.06.72.27 1.39.59 2H30v-2H2Z"/><path fill="#00A6ED" d="M2 24h8.899c.61 0 1.101-.49 1.101-1.1v-7.8c0-.61-.49-1.1-1.101-1.1H2v10Zm16.898-10h-3.796C14.49 14 14 14.49 14 15.1v5.8c0 .61.49 1.1 1.102 1.1h3.796C19.51 22 20 21.51 20 20.9v-5.8c0-.6-.49-1.1-1.102-1.1Zm4.204 0h3.796c.611 0 1.102.5 1.102 1.1v5.8c0 .61-.49 1.1-1.102 1.1h-3.796C22.49 22 22 21.51 22 20.9v-5.8c0-.61.49-1.1 1.102-1.1Z"/><path fill="#9B9B9B" d="M13 3h6c1.1 0 2 .9 2 2s-.9 2-2 2h-1.997v2.271c.595.348.997.994.997 1.729h-.997v.003h-2V11H14c0-.737.405-1.385 1.003-1.732V7H13c-1.1 0-2-.9-2-2s.9-2 2-2Z"/></svg>
